symbols/web/sports_motorsports/materialsymbolsoutlined/sports_motorsports_wght700fill1_24px.svg

<svg xmlns="http://www.w3.org/2000/svg" height="24" width="24"><path d="M2.925 20.075q-.7 0-1.212-.5-.513-.5-.513-1.2 0-.575.013-1.125.012-.55.037-1H9.9q2.075 0 3.55-1.463 1.475-1.462 1.475-3.587 0-1.55-.875-2.825-.875-1.275-2.3-1.85L8.6 5.25q1.375-.65 2.825-.988 1.45-.337 2.95-.337 3.475 0 5.95 2.325T22.8 12q0 3.4-2.362 5.738-2.363 2.337-5.763 2.337Zm-1.15-6.95q.5-1.55 1.45-3.05.95-1.5 2.275-2.7l5.05 2.075q.575.225.9.7.325.475.325 1.05 0 .825-.55 1.375t-1.375.55Z"/></svg>

<svg xmlns="http://www.w3.org/2000/svg" height="24" width="24"><path d="M2.925 20.075Q2.225 20.075 1.713 19.575Q1.2 19.075 1.2 18.375Q1.2 17.8 1.213 17.25Q1.225 16.7 1.25 16.25H9.9Q11.975 16.25 13.45 14.787Q14.925 13.325 14.925 11.2Q14.925 9.65 14.05 8.375Q13.175 7.1 11.75 6.525L8.6 5.25Q9.975 4.6 11.425 4.262Q12.875 3.925 14.375 3.925Q17.85 3.925 20.325 6.25Q22.8 8.575 22.8 12Q22.8 15.4 20.438 17.738Q18.075 20.075 14.675 20.075ZM1.775 13.125Q2.275 11.575 3.225 10.075Q4.175 8.575 5.5 7.375L10.55 9.45Q11.125 9.675 11.45 10.15Q11.775 10.625 11.775 11.2Q11.775 12.025 11.225 12.575Q10.675 13.125 9.85 13.125Z"/></svg>
